Newaita/devices/symbolic/drive-harddisk-solidstate-symbolic.symbolic.svg

<svg height="16" viewBox="0 0 16 16" width="16" xmlns="http://www.w3.org/2000/svg"><path d="m3.308594 1.449219c-.367188 0-.664063.292969-.664063.660156v11.90625c0 .367187.296875.664063.664063.664063h9.261718c.363282 0 .660157-.296876.660157-.664063v-11.90625c0-.367187-.296875-.660156-.660157-.660156zm3.304687 1.320312c.183594 0 .332031.148438.332031.332031v.660157h.664063v-.660157c0-.183593.144531-.332031.328125-.332031s.332031.148438.332031.332031v.660157h.660157v-.660157c0-.183593.148437-.332031.332031-.332031.183593 0 .332031.148438.332031.332031v.660157h.328125c.019531 0 .035156.003906.050781.003906.007813.003906.011719.003906.015625.003906.152344.03125.265625.164063.265625.324219v.332031h.660156c.183594 0 .332032.148438.332032.328125 0 .183594-.148438.332032-.332032.332032h-.660156v.660156h.660156c.183594 0 .332032.148437.332032.332031s-.148438.332031-.332032.332031h-.660156v.660156h.660156c.183594 0 .332032.148438.332032.332032s-.148438.332031-.332032.332031h-.660156v.328125c0 .039062-.007812.078125-.019531.113281-.003906.011719-.007813.019531-.011719.03125-.007812.007813-.011718.019531-.015625.027344-.015625.023437-.03125.042969-.050781.0625-.007812.007813-.015625.015625-.023438.023437-.035156.027344-.078124.050782-.128906.0625-.019531.007813-.042968.007813-.0625.011719-.007812 0-.011718 0-.019531 0h-.328125v.660157c0 .183593-.148438.332031-.332031.332031-.183594 0-.332031-.148438-.332031-.332031v-.660157h-.660157v.660157c0 .183593-.148437.332031-.332031.332031s-.328125-.148438-.328125-.332031v-.660157h-.664063v.660157c0 .183593-.148437.332031-.332031.332031-.179687 0-.328125-.148438-.328125-.332031v-.660157h-.332031c-.023437 0-.042969-.003906-.066406-.007812-.152344-.03125-.265625-.164063-.265625-.324219v-.328125h-.660156c-.183594 0-.332032-.148437-.332032-.332031s.148438-.332032.332032-.332032h.660156v-.660156h-.660156c-.183594 0-.332032-.148437-.332032-.332031s.148438-.332031.332032-.332031h.660156v-.660156h-.660156c-.183594 0-.332032-.148438-.332032-.332032 0-.179687.148438-.328125.332032-.328125h.660156v-.332031c0-.183594.148437-.332031.332031-.332031h.332031v-.660157c0-.183593.148438-.332031.328125-.332031zm-.660156 8.601563h3.96875c.367187 0 .664063.292968.664063.660156s-.296876.664062-.664063.664062h-3.96875c-.367187 0-.660156-.296874-.660156-.664062s.292969-.660156.660156-.660156zm0 0" fill="#424242"/></svg>

<?xml version="1.0" encoding="UTF-8"?>
<svg xmlns="http://www.w3.org/2000/svg" xmlns:xlink="http://www.w3.org/1999/xlink" width="16px" height="16px" viewBox="0 0 16 16" version="1.1">
<g id="surface1">
<path style=" stroke:none;fill-rule:nonzero;fill:rgb(25.882354%,25.882354%,25.882354%);fill-opacity:1;" d="M 3.308594 1.449219 C 2.941406 1.449219 2.644531 1.742188 2.644531 2.109375 L 2.644531 14.015625 C 2.644531 14.382812 2.941406 14.679688 3.308594 14.679688 L 12.570312 14.679688 C 12.933594 14.679688 13.230469 14.382812 13.230469 14.015625 L 13.230469 2.109375 C 13.230469 1.742188 12.933594 1.449219 12.570312 1.449219 Z M 6.613281 2.769531 C 6.796875 2.769531 6.945312 2.917969 6.945312 3.101562 L 6.945312 3.761719 L 7.609375 3.761719 L 7.609375 3.101562 C 7.609375 2.917969 7.753906 2.769531 7.9375 2.769531 C 8.121094 2.769531 8.269531 2.917969 8.269531 3.101562 L 8.269531 3.761719 L 8.929688 3.761719 L 8.929688 3.101562 C 8.929688 2.917969 9.078125 2.769531 9.261719 2.769531 C 9.445312 2.769531 9.59375 2.917969 9.59375 3.101562 L 9.59375 3.761719 L 9.921875 3.761719 C 9.941406 3.761719 9.957031 3.765625 9.972656 3.765625 C 9.980469 3.769531 9.984375 3.769531 9.988281 3.769531 C 10.140625 3.800781 10.253906 3.933594 10.253906 4.09375 L 10.253906 4.425781 L 10.914062 4.425781 C 11.097656 4.425781 11.246094 4.574219 11.246094 4.753906 C 11.246094 4.9375 11.097656 5.085938 10.914062 5.085938 L 10.253906 5.085938 L 10.253906 5.746094 L 10.914062 5.746094 C 11.097656 5.746094 11.246094 5.894531 11.246094 6.078125 C 11.246094 6.261719 11.097656 6.410156 10.914062 6.410156 L 10.253906 6.410156 L 10.253906 7.070312 L 10.914062 7.070312 C 11.097656 7.070312 11.246094 7.21875 11.246094 7.402344 C 11.246094 7.585938 11.097656 7.734375 10.914062 7.734375 L 10.253906 7.734375 L 10.253906 8.0625 C 10.253906 8.101562 10.246094 8.140625 10.234375 8.175781 C 10.230469 8.1875 10.226562 8.195312 10.222656 8.207031 C 10.214844 8.214844 10.210938 8.226562 10.207031 8.234375 C 10.191406 8.257812 10.175781 8.277344 10.15625 8.296875 C 10.148438 8.304688 10.140625 8.3125 10.132812 8.320312 C 10.097656 8.347656 10.054688 8.371094 10.003906 8.382812 C 9.984375 8.390625 9.960938 8.390625 9.941406 8.394531 C 9.933594 8.394531 9.929688 8.394531 9.921875 8.394531 L 9.59375 8.394531 L 9.59375 9.054688 C 9.59375 9.238281 9.445312 9.386719 9.261719 9.386719 C 9.078125 9.386719 8.929688 9.238281 8.929688 9.054688 L 8.929688 8.394531 L 8.269531 8.394531 L 8.269531 9.054688 C 8.269531 9.238281 8.121094 9.386719 7.9375 9.386719 C 7.753906 9.386719 7.609375 9.238281 7.609375 9.054688 L 7.609375 8.394531 L 6.945312 8.394531 L 6.945312 9.054688 C 6.945312 9.238281 6.796875 9.386719 6.613281 9.386719 C 6.433594 9.386719 6.285156 9.238281 6.285156 9.054688 L 6.285156 8.394531 L 5.953125 8.394531 C 5.929688 8.394531 5.910156 8.390625 5.886719 8.386719 C 5.734375 8.355469 5.621094 8.222656 5.621094 8.0625 L 5.621094 7.734375 L 4.960938 7.734375 C 4.777344 7.734375 4.628906 7.585938 4.628906 7.402344 C 4.628906 7.21875 4.777344 7.070312 4.960938 7.070312 L 5.621094 7.070312 L 5.621094 6.410156 L 4.960938 6.410156 C 4.777344 6.410156 4.628906 6.261719 4.628906 6.078125 C 4.628906 5.894531 4.777344 5.746094 4.960938 5.746094 L 5.621094 5.746094 L 5.621094 5.085938 L 4.960938 5.085938 C 4.777344 5.085938 4.628906 4.9375 4.628906 4.753906 C 4.628906 4.574219 4.777344 4.425781 4.960938 4.425781 L 5.621094 4.425781 L 5.621094 4.09375 C 5.621094 3.910156 5.769531 3.761719 5.953125 3.761719 L 6.285156 3.761719 L 6.285156 3.101562 C 6.285156 2.917969 6.433594 2.769531 6.613281 2.769531 Z M 5.953125 11.371094 L 9.921875 11.371094 C 10.289062 11.371094 10.585938 11.664062 10.585938 12.03125 C 10.585938 12.398438 10.289062 12.695312 9.921875 12.695312 L 5.953125 12.695312 C 5.585938 12.695312 5.292969 12.398438 5.292969 12.03125 C 5.292969 11.664062 5.585938 11.371094 5.953125 11.371094 Z M 5.953125 11.371094 "/>
</g>
</svg>
